X: 21066
T: Jupiter, The
R: slide
M: 12/8
K: Gmajor
|:E2 A A2 B cBA BGE|E2 A A2 B cBA B3|
E2 A A2 B cBA BGE|cBA BGE GAG E2 D:|
|:B2 d edB ded B2 A|B2 d edB dBG A2 c|
B2 d edB ded B2 A|cBA BGE GAG E2 D:|

